public/polygon.svg

<svg width="93" height="20" viewBox="0 0 93 20" fill="none" xmlns="http://www.w3.org/2000/svg">
<g clip-path="url(#clip0_462_5268)">
<mask id="mask0_462_5268" style="mask-type:luminance" maskUnits="userSpaceOnUse" x="0" y="0" width="93" height="20">
<path d="M92.5 0H0.5V20H92.5V0Z" fill="white"/>
</mask>
<g mask="url(#mask0_462_5268)">
<path d="M29.1451 18.7101V6.10575H31.0366L31.2022 7.12773H31.3016C31.8315 6.43542 32.7589 5.94092 34.0211 5.94092C36.3432 5.94092 38.231 7.8237 38.231 10.6259C38.231 13.4281 36.3726 15.3109 34.0174 15.3109C32.7589 15.3109 31.8941 14.7834 31.4304 14.19H31.331V18.6772H29.1414V18.7101H29.1451ZM36.0414 10.6259C36.0414 8.97751 34.9816 7.9519 33.6862 7.9519C32.3909 7.9519 31.331 8.97391 31.331 10.6259C31.331 12.2779 32.3909 13.2999 33.6862 13.2999C34.9816 13.2999 36.0414 12.2779 36.0414 10.6259Z" fill="#B0B0B5"/>
<path d="M39.3238 10.6259C39.3238 7.88597 41.3147 5.94092 43.9312 5.94092C46.5844 5.94092 48.5385 7.9226 48.5385 10.6259C48.5385 13.3658 46.5476 15.3109 43.9312 15.3109C41.2779 15.3109 39.3238 13.3329 39.3238 10.6259ZM46.3489 10.6259C46.3489 9.01055 45.2891 7.9519 43.9275 7.9519C42.6027 7.9519 41.506 9.00687 41.506 10.6259C41.506 12.2449 42.599 13.2999 43.9275 13.2999C45.256 13.2999 46.3489 12.2449 46.3489 10.6259Z" fill="#B0B0B5"/>
<path d="M50.1285 15.1461V2.64062H52.3181V15.1461H50.1285Z" fill="#B0B0B5"/>
<path d="M60.4728 6.10571H62.7948L58.8499 17.0947C58.4524 18.1827 57.9225 18.7101 56.4947 18.7101H54.375V16.6955H56.1635C56.4947 16.6955 56.6603 16.5306 56.7596 16.2669L56.9584 15.6735L53.2452 6.10205H55.5673L57.9225 12.3731H58.2868L60.4102 6.10205H60.4728V6.10571Z" fill="#B0B0B5"/>
<path d="M63.2258 15.6113H65.4485C65.5478 16.2046 66.144 16.9958 67.5387 16.9958C68.8635 16.9958 69.7283 16.1717 69.7283 14.9153V13.6626H69.629C69.1322 14.19 68.2379 14.6515 67.1082 14.6515C64.7861 14.6515 62.9645 12.8713 62.9645 10.2962C62.9645 7.72113 64.753 5.94092 67.1082 5.94092C68.3005 5.94092 69.1984 6.43542 69.7614 7.09477H69.8608L70.0264 6.10575H71.9179V14.9153C71.9179 17.3255 70.295 18.9079 67.5424 18.9079C64.4512 18.9079 63.292 16.897 63.2258 15.6113ZM69.6915 10.2962C69.6915 8.87863 68.6979 7.88597 67.4026 7.88597C66.144 7.88597 65.1467 8.87495 65.1467 10.2962C65.1467 11.7175 66.1403 12.7065 67.4026 12.7065C68.6648 12.7065 69.6915 11.7138 69.6915 10.2962Z" fill="#B0B0B5"/>
<path d="M73.4043 10.6259C73.4043 7.88597 75.3952 5.94092 78.0117 5.94092C80.6648 5.94092 82.6192 7.9226 82.6192 10.6259C82.6192 13.3658 80.628 15.3109 78.0117 15.3109C75.3584 15.3109 73.4043 13.3329 73.4043 10.6259ZM80.4331 10.6259C80.4331 9.01055 79.3401 7.9519 78.0117 7.9519C76.6869 7.9519 75.5902 9.00687 75.5902 10.6259C75.5902 12.2449 76.6832 13.2999 78.0117 13.2999C79.3365 13.2999 80.4331 12.2449 80.4331 10.6259Z" fill="#B0B0B5"/>
<path d="M84.1464 15.1461V6.10575H86.0384L86.204 6.96289H86.3032C86.6672 6.56729 87.5616 5.94092 88.9232 5.94092C91.0136 5.94092 92.504 7.42443 92.504 9.73575V15.179H90.3144V10.0325C90.3144 8.87863 89.4864 8.01783 88.3568 8.01783C87.2264 8.01783 86.3328 8.90791 86.3328 10.0325V15.179H84.1464V15.1461Z" fill="#B0B0B5"/>
<path d="M17.3434 14.0914L22.7125 10.9888C23.0106 10.824 23.1762 10.5273 23.1762 10.1976V3.9925C23.1762 3.66283 23.0106 3.36612 22.7125 3.20128L17.3434 0.0987239C17.0453 -0.0661111 16.7141 -0.0661111 16.416 0.0987239L11.0432 3.20128C10.7451 3.36612 10.5795 3.66283 10.5795 3.9925V15.0474L6.80016 17.2269L3.0208 15.0474V10.7251L6.80016 8.54564L9.28784 9.96316V7.05843L7.26384 5.90458C7.13136 5.83865 6.96576 5.77272 6.80016 5.77272C6.63456 5.77272 6.46896 5.80568 6.33648 5.90458L0.96368 9.01084C0.6656 9.17564 0.5 9.47236 0.5 9.80204V16.0072C0.5 16.3368 0.6656 16.6335 0.96368 16.7984L6.3328 19.9009C6.63088 20.0657 6.96208 20.0657 7.26016 19.9009L12.6293 16.7984C12.9274 16.6335 13.093 16.3368 13.093 16.0072V4.9522L13.1592 4.91924L16.876 2.77272L20.6554 4.9522V9.27452L16.876 11.4504L14.3883 10.0328V12.9376L16.4123 14.0914C16.7104 14.2562 17.0416 14.2562 17.3434 14.0914Z" fill="#B0B0B5"/>
</g>
</g>
<defs>
<clipPath id="clip0_462_5268">
<rect width="92" height="20" fill="white" transform="translate(0.5)"/>
</clipPath>
</defs>
</svg>

<svg xmlns="http://www.w3.org/2000/svg" width="93" height="20" fill="none"><g clip-path="url(#a)"><mask id="b" width="93" height="20" x="0" y="0" maskUnits="userSpaceOnUse" style="mask-type:luminance"><path fill="#fff" d="M92.5 0H.5v20h92z"/></mask><g fill="#B0B0B5" mask="url(#b)"><path d="M29.145 18.71V6.106h1.892l.165 1.022h.1c.53-.693 1.457-1.187 2.72-1.187 2.321 0 4.209 1.883 4.209 4.685s-1.858 4.685-4.214 4.685c-1.258 0-2.123-.528-2.587-1.121h-.099v4.487h-2.19v.033zm6.896-8.084c0-1.648-1.06-2.674-2.355-2.674s-2.355 1.022-2.355 2.674 1.06 2.674 2.355 2.674c1.296 0 2.355-1.022 2.355-2.674m3.283 0c0-2.74 1.99-4.685 4.607-4.685 2.653 0 4.608 1.982 4.608 4.685 0 2.74-1.991 4.685-4.608 4.685-2.653 0-4.607-1.978-4.607-4.685m7.025 0c0-1.615-1.06-2.674-2.421-2.674-1.325 0-2.422 1.055-2.422 2.674s1.093 2.674 2.422 2.674c1.328 0 2.42-1.055 2.42-2.674m3.781 4.52V2.641h2.19v12.505zm10.344-9.04h2.322L58.85 17.095c-.398 1.088-.928 1.615-2.355 1.615h-2.12v-2.015h1.788c.332 0 .497-.164.597-.428l.198-.593-3.713-9.572h2.322l2.355 6.271h.365l2.123-6.27h.063zm2.753 9.505h2.222c.1.594.696 1.385 2.09 1.385 1.326 0 2.19-.824 2.19-2.08v-1.253h-.099c-.497.527-1.391.989-2.52.989-2.323 0-4.144-1.78-4.144-4.356s1.788-4.355 4.143-4.355c1.192 0 2.09.494 2.653 1.154h.1l.165-.99h1.892v8.81c0 2.41-1.623 3.993-4.376 3.993-3.09 0-4.25-2.011-4.316-3.297m6.466-5.315c0-1.417-.994-2.41-2.29-2.41-1.258 0-2.255.989-2.255 2.41s.993 2.41 2.256 2.41 2.288-.992 2.288-2.41m3.713.33c0-2.74 1.991-4.685 4.608-4.685 2.653 0 4.607 1.982 4.607 4.685 0 2.74-1.991 4.685-4.607 4.685-2.654 0-4.608-1.978-4.608-4.685m7.03 0c0-1.615-1.094-2.674-2.422-2.674-1.325 0-2.422 1.055-2.422 2.674s1.093 2.674 2.422 2.674c1.325 0 2.421-1.055 2.421-2.674m3.713 4.52v-9.04h1.892l.166.857h.1c.363-.396 1.258-1.022 2.62-1.022 2.09 0 3.58 1.483 3.58 3.795v5.443h-2.19v-5.146c0-1.154-.828-2.015-1.957-2.015s-2.024.89-2.024 2.015v5.146h-2.187zm-66.803-1.055 5.37-3.102a.89.89 0 0 0 .463-.791V3.992a.89.89 0 0 0-.463-.79L17.342.098a.93.93 0 0 0-.927 0L11.043 3.2a.89.89 0 0 0-.463.792v11.054l-3.78 2.18-3.78-2.18v-4.322l3.78-2.18 2.488 1.418V7.058L7.264 5.905a1.1 1.1 0 0 0-.464-.132.76.76 0 0 0-.464.132L.964 9.01a.89.89 0 0 0-.464.791v6.205c0 .33.166.627.464.791L6.333 19.9a.93.93 0 0 0 .927 0l5.37-3.103a.89.89 0 0 0 .463-.79V4.951l.066-.033 3.717-2.146 3.78 2.18v4.322l-3.78 2.175-2.488-1.417v2.905l2.024 1.153c.298.165.63.165.931 0"/></g></g><defs><clipPath id="a"><path fill="#fff" d="M.5 0h92v20H.5z"/></clipPath></defs></svg>
